src/assets/images/YouTube.svg

<svg width="60" height="60" viewBox="0 0 60 60" fill="none" xmlns="http://www.w3.org/2000/svg">
<rect width="60" height="60" rx="30" fill="white"/>
<path d="M50.5476 19.6956C50.0533 17.8597 48.6058 16.4122 46.7699 15.9179C43.4159 15 29.9998 15 29.9998 15C29.9998 15 16.5837 15 13.2297 15.8826C11.4291 16.3769 9.94625 17.8597 9.45197 19.6956C8.56934 23.0497 8.56934 30.0049 8.56934 30.0049C8.56934 30.0049 8.56934 36.9953 9.45197 40.3141C9.94625 42.15 11.3938 43.5975 13.2297 44.0918C16.619 45.0097 29.9998 45.0097 29.9998 45.0097C29.9998 45.0097 43.4159 45.0097 46.7699 44.1271C48.6058 43.6328 50.0533 42.1853 50.5476 40.3494C51.4303 36.9953 51.4303 30.0402 51.4303 30.0402C51.4303 30.0402 51.4656 23.0497 50.5476 19.6956Z" fill="#FF0000"/>
<path d="M25.728 36.4303L36.8846 30.0047L25.728 23.5791V36.4303Z" fill="white"/>
</svg>

<svg xmlns="http://www.w3.org/2000/svg" width="60" height="60" fill="none"><rect width="60" height="60" fill="#fff" rx="30"/><path fill="red" d="M50.548 19.696a5.37 5.37 0 0 0-3.778-3.778C43.416 15 30 15 30 15s-13.416 0-16.77.883c-1.8.494-3.284 1.977-3.778 3.813-.883 3.354-.883 10.309-.883 10.309s0 6.99.883 10.31a5.37 5.37 0 0 0 3.778 3.777c3.389.918 16.77.918 16.77.918s13.416 0 16.77-.883a5.37 5.37 0 0 0 3.778-3.778c.882-3.354.882-10.309.882-10.309s.036-6.99-.882-10.344"/><path fill="#fff" d="m25.728 36.43 11.157-6.425-11.157-6.426z"/></svg>
